Printex-remake/img/icons/catalog_colored/10.svg

<svg width="98" height="98" viewBox="0 0 98 98" fill="none" xmlns="http://www.w3.org/2000/svg">
<g clip-path="url(#clip0)">
<path d="M23.6846 94.8306L62.9438 72.1659L76.975 74.4291L37.7157 97.0938L23.6846 94.8306Z" fill="#D7C7ED"/>
<path d="M28.1191 29.593L67.1574 7.0526L67.1554 71.2017L34.1576 90.2544L32.9222 89.882C30.3685 89.1123 28.651 86.8207 28.1191 83.4733L28.1191 29.593Z" fill="#E5D4FC"/>
<path d="M30.1055 83.4734L71.2105 60.3156L74.6842 66.1051L72.7513 67.9235L33.9545 90.3245L33.3644 85.5789L30.1055 83.4734Z" fill="#E5D4FC"/>
<path d="M25.4736 84.8759C25.4737 87.1632 27.2882 89.9447 29.5264 91.0884C31.7646 92.2322 33.5789 91.3051 33.5789 89.0177C33.5788 86.7304 31.7643 83.9489 29.5261 82.8052" stroke="black" stroke-linejoin="bevel"/>
<path d="M70.0527 60.3154C72.2909 61.4592 74.1053 63.5726 74.1054 65.86C74.1054 66.7308 73.8425 67.4044 73.3933 67.8417C72.96 68.2636 71.2106 69.5785 71.2106 69.5785" stroke="black" stroke-linejoin="bevel"/>
<path d="M67.1603 62.0524V7.05249L25.4756 31.1209L25.4756 85.2101" stroke="black" stroke-linejoin="bevel"/>
<path d="M27.79 26.1591L27.79 17" stroke="black" stroke-linejoin="bevel"/>
<path d="M61.3691 -7.99976L61.3691 6.475" stroke="black" stroke-linejoin="bevel"/>
<path d="M30.1055 83.2259L70.6316 60.3154" stroke="black" stroke-linejoin="bevel"/>
<path d="M32.4209 91.3311L72.947 68.4206" stroke="black" stroke-linejoin="bevel"/>
<path d="M25.4736 32.8442L22 34.8499L22.0002 28.9364L69.9281 1.26318L69.9279 7.17662L67.1345 8.78954" stroke="black" stroke-linejoin="bevel"/>
<path d="M34.6851 39.5288L59.4195 25.2473L59.419 42.2056L34.6846 56.4871L34.6851 39.5288Z" fill="white" stroke="black" stroke-linejoin="bevel"/>
<path d="M59.419 51.2473L34.6846 65.5288" stroke="black" stroke-linejoin="bevel"/>
<path d="M34.6846 70.5288L36.3277 69.0486C37.2554 68.2129 38.2483 67.7764 39.0889 67.8348L39.3223 67.851C40.2827 67.9177 41.4537 67.2416 42.4141 66.0658C43.3745 64.8901 44.5455 64.2139 45.5059 64.2806C46.4662 64.3474 47.6373 63.6712 48.5977 62.4955C49.5581 61.3197 50.7291 60.6435 51.6894 60.7103C52.6498 60.777 53.8209 60.1008 54.7813 58.925L55.0146 58.6394C55.8552 57.6103 56.8481 56.9002 57.7758 56.6646L59.419 56.2473" stroke="black" stroke-linejoin="bevel"/>
</g>
<defs>
<clipPath id="clip0">
<rect width="98" height="98" fill="white"/>
</clipPath>
</defs>
</svg>

<svg width="98" height="98" fill="none" xmlns="http://www.w3.org/2000/svg"><g clip-path="url(#clip0)"><path d="M23.685 94.83l39.259-22.664 14.031 2.263-39.26 22.665-14.03-2.263z" fill="#D7C7ED"/><path d="M28.12 29.593l39.037-22.54-.002 64.149-32.997 19.052-1.236-.372c-2.553-.77-4.271-3.061-4.803-6.409v-53.88z" fill="#E5D4FC"/><path d="M30.105 83.473L71.21 60.316l3.474 5.79-1.933 1.818-38.797 22.4-.59-4.745-3.258-2.106z" fill="#E5D4FC"/><path d="M25.474 84.876c0 2.287 1.814 5.069 4.052 6.212 2.239 1.144 4.053.217 4.053-2.07 0-2.288-1.815-5.07-4.053-6.213m40.527-22.49c2.238 1.144 4.052 3.258 4.052 5.545 0 .87-.263 1.544-.712 1.982-.433.422-2.182 1.737-2.182 1.737" stroke="#000" stroke-linejoin="bevel"/><path d="M67.16 62.052v-55L25.476 31.121v54.09M27.79 26.16V17M61.37-8V6.475M30.105 83.226l40.527-22.91M32.42 91.331l40.527-22.91" stroke="#000" stroke-linejoin="bevel"/><path d="M25.474 32.844L22 34.85v-5.914L69.928 1.263v5.914L67.135 8.79" stroke="#000" stroke-linejoin="bevel"/><path d="M34.685 39.529L59.42 25.247v16.959L34.685 56.487V39.53z" fill="#fff" stroke="#000" stroke-linejoin="bevel"/><path d="M59.419 51.247L34.685 65.53m0 4.999l1.643-1.48c.927-.836 1.92-1.273 2.76-1.214l.234.016c.96.067 2.132-.61 3.092-1.785.96-1.176 2.131-1.852 3.092-1.785.96.066 2.131-.61 3.092-1.786.96-1.175 2.131-1.851 3.091-1.785.96.067 2.132-.61 3.092-1.785l.234-.286c.84-1.029 1.833-1.739 2.76-1.974l1.644-.418" stroke="#000" stroke-linejoin="bevel"/></g><defs><clipPath id="clip0"><path fill="#fff" d="M0 0h98v98H0z"/></clipPath></defs></svg>
